src/packages/tokens/img/luna.svg

<svg width="24" height="24" viewBox="0 0 24 24" fill="none" xmlns="http://www.w3.org/2000/svg">
<g clip-path="url(#clip0_2450_35757)">
<path d="M12 24C18.6274 24 24 18.6274 24 12C24 5.37258 18.6274 0 12 0C5.37258 0 0 5.37258 0 12C0 18.6274 5.37258 24 12 24Z" fill="#172852"/>
<path d="M9.66586 5.36285C11.0711 4.83725 12.6527 4.83605 14.0843 5.26805C15.9479 5.84645 17.5211 7.25285 18.3431 9.01805C18.5699 9.52085 18.7871 10.0452 18.8087 10.6044C17.7611 9.99725 16.6127 9.60365 15.4619 9.24485C13.6211 8.58125 11.6939 8.12045 9.95146 7.20845C9.54586 6.96605 9.02866 6.71765 8.91826 6.21245C8.87386 5.77565 9.33586 5.53205 9.66586 5.36285Z" fill="#FFD83D"/>
<path d="M5.42414 9.61081C5.83094 8.50681 6.49814 7.48201 7.40414 6.72241C7.63454 8.61721 8.44094 10.4484 9.77294 11.826C11.3701 13.4856 13.6453 14.5044 15.9601 14.466C16.8793 14.4948 17.7781 14.2824 18.6745 14.1108C17.7925 17.298 14.2993 19.4136 11.0629 18.9048C9.10934 18.6552 7.30574 17.4984 6.21734 15.8652C4.98974 14.0604 4.68014 11.664 5.42414 9.61081Z" fill="#FFD83D"/>
<path d="M15.4619 9.24475C16.6127 9.60355 17.7611 9.99715 18.8087 10.6044L18.8795 10.6416C18.9767 11.3724 19.0475 12.1176 18.9179 12.8496C18.3911 12.6264 17.9639 12.234 17.5175 11.8872C16.6583 11.172 15.7811 10.3536 15.4619 9.24475Z" fill="#FF6F03"/>
</g>
<defs>
<clipPath id="clip0_2450_35757">
<rect width="24" height="24" fill="white"/>
</clipPath>
</defs>
</svg>

<svg xmlns="http://www.w3.org/2000/svg" width="24" height="24" fill="none" xmlns:v="https://vecta.io/nano"><g clip-path="url(#A)"><path d="M12 24c6.627 0 12-5.373 12-12S18.627 0 12 0 0 5.373 0 12s5.373 12 12 12z" fill="#172852"/><g fill="#ffd83d"><path d="M9.666 5.363c1.405-.526 2.987-.527 4.418-.095 1.864.578 3.437 1.985 4.259 3.75.227.503.444 1.027.466 1.586-1.048-.607-2.196-1.001-3.347-1.36-1.841-.664-3.768-1.124-5.51-2.036-.406-.242-.923-.491-1.033-.996-.044-.437.418-.68.748-.85zM5.424 9.611c.407-1.104 1.074-2.129 1.98-2.888.23 1.895 1.037 3.726 2.369 5.104 1.597 1.66 3.872 2.678 6.187 2.64.919.029 1.818-.184 2.714-.355-.882 3.187-4.375 5.303-7.612 4.794-1.954-.25-3.757-1.406-4.846-3.04a7.04 7.04 0 0 1-.793-6.254z"/></g><path d="M15.462 9.245c1.151.359 2.299.752 3.347 1.36l.071.037c.097.731.168 1.476.038 2.208-.527-.223-.954-.616-1.4-.962-.859-.715-1.736-1.534-2.056-2.642z" fill="#ff6f03"/></g><defs><clipPath id="A"><path fill="#fff" d="M0 0h24v24H0z"/></clipPath></defs></svg>
